packages/components/src/components/icon/wallet/ic-wallet-fasapay-dark.svg

<svg width="40" height="25" viewBox="0 0 40 25" fill="none" xmlns="http://www.w3.org/2000/svg">
<path d="M34.8907 10.3125L35.8282 12.9875L36.7313 10.3125H38.4376L37.4907 12.6219C37.4183 12.7987 37.3275 13.0231 37.2331 13.2579L37.1761 13.3996C36.9281 14.0168 36.675 14.6532 36.675 14.6532C36.675 14.6532 36.3282 15.7969 35.8657 16.1563C35.5348 16.3727 35.1452 16.4819 34.75 16.4688C34.5 16.4795 33.6776 16.4841 32.6108 16.4852L32.3392 16.4854C32.2932 16.4854 32.2468 16.4854 32.2 16.4854H31.9153C31.8672 16.4854 31.8188 16.4854 31.7701 16.4854L31.4748 16.4852C31.2262 16.485 30.9718 16.4847 30.7144 16.4843L30.4045 16.4838L29.6248 16.4821C27.8076 16.4779 26.0524 16.4709 25.3768 16.4692L25.2717 16.4689C25.256 16.4689 25.2413 16.4689 25.2275 16.4688L25.1563 16.4688L25.3938 15.3657H34.3876C34.5741 15.3673 34.7546 15.2993 34.8938 15.175C35.0119 15.0712 35.0705 14.9153 35.0501 14.7594C35.0479 14.6011 35.0106 14.4452 34.9407 14.3032C34.75 13.8782 33.2375 10.3125 33.2375 10.3125H34.8907ZM26.6625 10.1375C27.2049 10.1228 27.7199 10.375 28.0407 10.8125C28.3985 11.3007 28.5812 11.8952 28.5594 12.5C28.5808 13.1073 28.3896 13.703 28.0188 14.1844C27.6988 14.6103 27.1953 14.8586 26.6625 14.8532C26.1413 14.8713 25.6556 14.5896 25.4125 14.1282L24.9407 16.45H23.0032L24.2532 10.2157H25.4063V10.8719C25.6477 10.4047 26.137 10.1187 26.6625 10.1375ZM31.1782 10.1969C32.6448 10.1969 33.3886 10.6469 33.4094 11.5469V13.9813C33.4132 14.2263 33.5282 14.4563 33.7219 14.6063V14.7438H32.1875C32.074 14.5942 32.0165 14.4095 32.0251 14.2219C31.5685 14.6173 30.9853 14.8358 30.3813 14.8375C29.9516 14.858 29.5279 14.73 29.1813 14.475C28.8897 14.2524 28.7215 13.9043 28.7282 13.5375C28.7282 12.5438 29.6657 12.2532 30.4938 12.1344C30.7469 12.1 31 12.0688 31.2563 12.0407C31.4944 12.035 31.7253 11.9577 31.9188 11.8188C31.9953 11.7539 32.0359 11.6563 32.0282 11.5563C32 10.9688 31.0188 11.0438 30.6719 11.2438C30.5229 11.358 30.4278 11.5288 30.4094 11.7157H28.8469C28.9344 10.7032 29.7115 10.1969 31.1782 10.1969ZM32.0282 12.6469C31.853 12.7042 31.6731 12.746 31.4907 12.7719L31.05 12.8375C30.7375 12.8875 30.3219 12.9875 30.3219 13.3782C30.3219 13.7688 30.6657 13.8594 30.9688 13.8625C31.5625 13.8625 32.0282 13.5438 32.0282 12.925V12.6469ZM26.3954 11.4486C26.178 11.4486 25.9762 11.5616 25.8625 11.7469C25.5914 12.2113 25.5914 12.7857 25.8625 13.25C25.9792 13.4296 26.1797 13.5369 26.3938 13.5344C26.6085 13.5362 26.8091 13.4276 26.9251 13.2469C27.0726 13.0267 27.1449 12.7647 27.1313 12.5C27.1431 12.234 27.0721 11.9709 26.9282 11.7469C26.8145 11.5616 26.6128 11.4486 26.3954 11.4486Z" fill="#4873AC"/>
<path d="M13.0812 9.96564C13.6482 9.92415 14.2057 10.1278 14.6125 10.525C15.0562 11.0063 14.8062 11.5969 14.5969 12.0719L14.5094 12.2813L13.7937 14.1094C13.7722 14.1538 13.7575 14.2012 13.75 14.25C13.7482 14.3525 13.793 14.4502 13.8719 14.5156C13.9085 14.5565 13.9194 14.6143 13.9 14.6656L13.8406 14.8031C13.8121 14.8652 13.7495 14.9044 13.6812 14.9031H12.2C12.1324 14.9048 12.0705 14.8652 12.0437 14.8031C12.0202 14.7483 12.0044 14.6905 11.9969 14.6313C11.536 14.8905 11.0191 15.0342 10.4906 15.05C10.0963 15.0636 9.71036 14.9349 9.4031 14.6875C9.05036 14.4297 8.91133 13.9693 9.06248 13.5594C9.25268 13.1415 9.57273 12.7963 9.97498 12.575C10.3753 12.3262 10.8181 12.1535 11.2812 12.0656C11.5049 12.0218 11.7316 11.9947 11.9594 11.9844H12.1406C12.6719 11.95 12.9906 11.8281 13.125 11.6375C13.1571 11.5893 13.1571 11.5264 13.125 11.4781C13.0714 11.389 12.9809 11.3283 12.8781 11.3125C12.5951 11.257 12.3017 11.2931 12.0406 11.4156C11.9135 11.483 11.8058 11.582 11.7281 11.7031C11.685 11.7615 11.6112 11.7886 11.5406 11.7719L10.3812 11.525C10.334 11.5149 10.2931 11.4855 10.2687 11.4438C10.2435 11.4014 10.2435 11.3486 10.2687 11.3063C10.4723 10.9515 10.7696 10.6595 11.1281 10.4625C11.7076 10.1575 12.3486 9.9876 13.0031 9.96564H13.0812ZM16.6156 10.1813C17.5219 9.87814 18.7719 9.83439 19.3969 10.4594C19.5974 10.6612 19.7098 10.9343 19.7094 11.2188V11.25L18.1 11.6375V11.5781C18.1102 11.4744 18.068 11.3725 17.9875 11.3063C17.7638 11.1719 17.4943 11.1368 17.2437 11.2094C17.0719 11.25 16.7875 11.3125 16.8094 11.4844C16.8125 11.5719 16.9562 11.6281 17.0406 11.6625C17.261 11.7393 17.488 11.7957 17.7187 11.8313C18.3219 11.9438 19.0031 12.0688 19.1719 12.7313C19.3687 13.5031 18.6656 14.2438 17.8687 14.575C17.3663 14.7825 16.8279 14.8888 16.2844 14.8875C15.9821 14.8875 15.6806 14.8572 15.3844 14.7969C14.8861 14.7321 14.4569 14.4141 14.25 13.9563C14.1946 13.8153 14.1774 13.6623 14.2 13.5125C14.2156 13.3875 14.2219 13.3469 15.6687 13.1438C15.7157 13.1383 15.7629 13.1518 15.8 13.1813C15.8377 13.2087 15.8588 13.2535 15.8562 13.3C15.8442 13.3861 15.8731 13.4728 15.9344 13.5344C16.1299 13.6571 16.3612 13.7099 16.5906 13.6844C16.8093 13.6911 17.0271 13.6539 17.2312 13.575C17.35 13.525 17.4156 13.4563 17.4187 13.3813C17.4219 13.3063 17.35 13.2281 17.2281 13.175C17.0806 13.1149 16.9264 13.0729 16.7687 13.05L16.5781 13.0094C16.4531 12.9813 16.3219 12.9531 16.2219 12.9219C16.0409 12.8684 15.8668 12.7939 15.7031 12.7C15.3902 12.5369 15.1585 12.252 15.0625 11.9125C15.0014 11.6432 15.057 11.3605 15.2156 11.1344C15.5708 10.6778 16.0606 10.3444 16.6156 10.1813ZM22.9946 10.0991L23.1281 10.1031C23.4641 10.0965 23.7997 10.129 24.1281 10.2C24.3407 10.234 24.5409 10.3222 24.7094 10.4563C24.8094 10.5413 24.8885 10.6482 24.9406 10.7688C24.9764 10.871 24.985 10.9809 24.9656 11.0875C24.9408 11.2157 24.901 11.3405 24.8469 11.4594L23.8062 13.9594C23.8062 13.9594 23.75 14.0969 23.75 14.1344C23.75 14.2013 23.6924 14.4306 23.6439 14.6118L23.6187 14.7047C23.5952 14.7902 23.5781 14.85 23.5781 14.85H20.4531C20.0689 14.8692 19.6894 14.7592 19.375 14.5375C19.1264 14.3582 19.0045 14.051 19.0625 13.75C19.0809 13.6539 19.1114 13.5604 19.1531 13.4719C19.2168 13.3341 19.2976 13.205 19.3937 13.0875C19.516 12.9315 19.6578 12.7918 19.8156 12.6719C20.0219 12.5234 20.2467 12.4026 20.4844 12.3125C20.786 12.1955 21.1008 12.1157 21.4219 12.075L22.0469 12.0031L22.225 11.9813L22.425 11.9594L22.625 11.9313C22.6914 11.9222 22.7572 11.9086 22.8218 11.8906C22.8656 11.875 22.925 11.8594 22.9968 11.8406C23.0576 11.8259 23.1156 11.8016 23.1687 11.7688C23.2149 11.7387 23.2587 11.7053 23.3 11.6688C23.342 11.6329 23.377 11.5894 23.4031 11.5406C23.4267 11.4921 23.4435 11.4406 23.4531 11.3875C23.4875 11.15 23.2531 11.0313 22.7469 11.0313C22.4772 11.0189 22.2081 11.0669 21.9594 11.1719C21.7553 11.2796 21.5894 11.4477 21.4844 11.6531H20.1219C20.3233 11.1449 20.7003 10.7258 21.1844 10.4719C21.7945 10.1986 22.4603 10.0723 23.1281 10.1031L22.9946 10.0991ZM12.0219 8.51251L11.225 9.65314H11.1969C11.0639 9.64099 10.9304 9.63578 10.7969 9.63751H10.7156C10.5625 9.62501 10.375 9.74064 10.1969 9.97189L10.1094 10.15H10.7344L9.98748 11.4563H9.41248L7.84998 14.6031H7.8156L3.2281 14.375V14.2875C3.24223 14.2855 4.08925 14.2274 4.96694 14.1866L5.22188 14.1752L5.39065 14.1684C5.72615 14.1555 6.04685 14.1469 6.30623 14.1469L7.18123 12.5094L1.58435 11.8844V11.7844L1.59798 11.7841C1.76579 11.7804 3.41756 11.7377 5.04134 11.7061L5.26758 11.7018C6.17059 11.6847 7.04298 11.6719 7.62185 11.6719L7.68748 11.5469C7.28417 11.4752 6.72304 11.3806 6.16791 11.2887L5.993 11.2599C5.06324 11.1066 4.19945 10.9688 4.18435 10.9688V10.8688C4.1973 10.8688 4.98412 10.8239 5.81862 10.7872L6.07833 10.7762C6.56874 10.7561 7.04972 10.7406 7.37498 10.7406C7.48047 10.6812 7.56381 10.589 7.61248 10.4781C7.64721 10.4012 7.69718 10.3321 7.75935 10.275C7.88857 10.2209 8.0297 10.2015 8.16873 10.2188H8.43748L2.80623 9.53126V9.43126L2.81963 9.43102C3.07789 9.42555 6.91542 9.33126 8.58435 9.33126C8.61656 9.32809 8.64901 9.32809 8.68123 9.33126H8.9031C8.41115 9.26452 7.80867 9.18034 7.20801 9.09556L7.00801 9.0673C6.97474 9.06259 6.94151 9.05789 6.90835 9.05319L6.71029 9.02513C5.52831 8.85751 4.47842 8.70626 4.45935 8.70626V8.60626L4.47305 8.60611C4.6326 8.604 6.12443 8.5809 7.70778 8.56038L8.05633 8.55593C9.2586 8.5408 10.4613 8.52814 11.1281 8.52814H11.9312L12.0219 8.51251ZM22.1875 12.35C21.8595 12.3885 21.5838 12.6142 21.4812 12.9281C21.4122 13.0876 21.4441 13.2728 21.5625 13.4L20.8469 14.4469H22.1375V13.4C22.32 13.2938 22.4594 13.1268 22.5312 12.9281C22.6375 12.6094 22.5 12.35 22.1875 12.35ZM12.6 12.8781L12.4312 12.9094L12.15 12.95L12.1219 12.9688C11.8625 12.9982 11.6063 13.0505 11.3562 13.125C11.1293 13.1755 10.9375 13.326 10.8344 13.5344C10.7937 13.6625 10.8406 13.7156 10.8844 13.75C11.1274 13.8672 11.4065 13.8852 11.6625 13.8C12.0915 13.6533 12.4344 13.3253 12.6 12.9031V12.8781Z" fill="#F6931C"/>
</svg>

<svg width="40" height="25" fill="none" xmlns="http://www.w3.org/2000/svg"><path d="M34.89 10.313l.938 2.675.903-2.675h1.707l-.947 2.309c-.073.177-.163.401-.258.636l-.057.142c-.248.617-.501 1.253-.501 1.253s-.347 1.144-.81 1.503c-.33.217-.72.326-1.115.313-.25.01-1.072.015-2.14.016h-1.895l-.31-.001-.78-.002c-1.817-.004-3.573-.011-4.248-.013H25.156l.238-1.103h8.994a.75.75 0 00.506-.191.472.472 0 00.156-.416 1.067 1.067 0 00-.11-.456c-.19-.425-1.703-3.99-1.703-3.99h1.654zm-8.227-.176a1.653 1.653 0 011.378.675 2.69 2.69 0 01.518 1.688 2.61 2.61 0 01-.54 1.684c-.32.426-.824.675-1.356.67a1.36 1.36 0 01-1.25-.726l-.472 2.322h-1.938l1.25-6.234h1.153v.656a1.36 1.36 0 011.257-.735zm4.515.06c1.467 0 2.21.45 2.231 1.35v2.434a.806.806 0 00.313.625v.138h-1.535a.803.803 0 01-.162-.522 2.522 2.522 0 01-1.644.616c-.43.02-.853-.108-1.2-.363a1.153 1.153 0 01-.453-.938c0-.993.938-1.284 1.766-1.403.253-.034.506-.065.762-.093.238-.006.47-.083.663-.222a.313.313 0 00.11-.263c-.029-.587-1.01-.512-1.357-.312a.678.678 0 00-.263.472h-1.562c.087-1.013.864-1.52 2.331-1.52zm.85 2.45c-.175.057-.355.099-.537.125l-.441.066c-.313.05-.728.15-.728.54s.344.481.647.485c.593 0 1.06-.32 1.06-.938v-.278zm-5.633-1.198a.625.625 0 00-.532.298 1.49 1.49 0 000 1.503c.116.18.317.287.53.284a.625.625 0 00.532-.287c.148-.22.22-.482.206-.747.012-.266-.059-.53-.203-.753a.625.625 0 00-.533-.298z" fill="#4873AC"/><path d="M13.081 9.966a1.985 1.985 0 011.532.559c.443.481.193 1.072-.016 1.547l-.088.21-.715 1.827a.495.495 0 00-.044.141c-.002.102.043.2.122.266.037.04.047.098.028.15l-.06.137a.172.172 0 01-.159.1H12.2a.166.166 0 01-.156-.1.64.64 0 01-.047-.172c-.461.26-.978.403-1.506.419a1.644 1.644 0 01-1.088-.363.978.978 0 01-.34-1.128c.19-.417.51-.763.912-.984.4-.249.843-.421 1.306-.51.224-.043.45-.07.678-.08h.182c.53-.035.85-.157.984-.348a.144.144 0 000-.159.35.35 0 00-.247-.165 1.357 1.357 0 00-.837.103.837.837 0 00-.313.287.181.181 0 01-.187.069l-1.16-.247a.172.172 0 01-.112-.081.134.134 0 010-.138c.203-.354.5-.646.86-.843a4.338 4.338 0 011.874-.497h.078zm3.535.215c.906-.303 2.156-.347 2.78.278.201.202.314.475.313.76v.031l-1.609.387v-.059a.312.312 0 00-.113-.272.938.938 0 00-.743-.097c-.172.041-.456.104-.435.275.003.088.147.144.232.178.22.077.447.134.678.17.603.112 1.284.237 1.453.9.197.771-.506 1.512-1.303 1.843a4.124 4.124 0 01-1.585.313c-.302 0-.603-.03-.9-.091a1.45 1.45 0 01-1.134-.84.862.862 0 01-.05-.445c.016-.125.022-.165 1.469-.368a.178.178 0 01.131.037.137.137 0 01.056.119.278.278 0 00.078.234c.196.123.427.176.657.15.218.007.436-.03.64-.109.119-.05.185-.119.188-.194.003-.075-.069-.153-.19-.206a1.966 1.966 0 00-.46-.125l-.19-.04c-.126-.029-.257-.057-.357-.088a2.423 2.423 0 01-.519-.222 1.281 1.281 0 01-.64-.787.978.978 0 01.153-.779 2.76 2.76 0 011.4-.953zm6.379-.082l.133.004a4.33 4.33 0 011 .097c.213.034.413.122.581.256.1.085.18.192.232.313a.626.626 0 01.025.319 1.658 1.658 0 01-.12.371l-1.04 2.5s-.056.138-.056.175c0 .067-.058.297-.106.478l-.025.093-.04.145h-3.126c-.384.02-.764-.09-1.078-.313a.787.787 0 01-.313-.787c.019-.096.05-.19.091-.278a1.8 1.8 0 01.24-.384c.123-.156.265-.296.423-.416a2.91 2.91 0 01.668-.36c.302-.117.617-.196.938-.237l.625-.072.178-.022.2-.022.2-.028c.066-.009.132-.022.197-.04.044-.016.103-.032.175-.05a.592.592 0 00.172-.072c.046-.03.09-.064.131-.1a.444.444 0 00.153-.282c.035-.237-.2-.356-.706-.356a1.81 1.81 0 00-.788.14c-.204.109-.37.277-.475.482h-1.362a2.284 2.284 0 011.062-1.181c.61-.273 1.276-.4 1.944-.369l-.133-.004zM12.022 8.513l-.797 1.14h-.028a3.848 3.848 0 00-.4-.015h-.081c-.153-.013-.341.103-.52.334l-.087.178h.625l-.747 1.306h-.575L7.85 14.603h-.034l-4.588-.228v-.088c.014-.002.861-.06 1.739-.1l.255-.012.169-.007c.335-.012.656-.021.915-.021l.875-1.638-5.597-.625v-.1h.014c.168-.004 1.82-.046 3.443-.078l.227-.004c.903-.017 1.775-.03 2.354-.03l.065-.125a142.73 142.73 0 00-1.52-.258l-.174-.03a159.32 159.32 0 00-1.809-.29v-.1c.013 0 .8-.045 1.635-.082l.26-.01c.49-.02.97-.036 1.296-.036a.56.56 0 00.237-.263.625.625 0 01.147-.203.803.803 0 01.41-.056h.268l-5.63-.688v-.1h.013c.258-.005 4.095-.1 5.764-.1a.495.495 0 01.097 0h.222c-.492-.066-1.094-.15-1.695-.235l-.2-.029-.1-.014-.198-.028c-1.182-.167-2.232-.319-2.25-.319v-.1h.013c.16-.002 1.651-.025 3.235-.046l.348-.004a300.6 300.6 0 013.072-.028h.803l.09-.015zm10.165 3.837a.847.847 0 00-.706.578.438.438 0 00.081.472l-.715 1.047h1.29V13.4a.9.9 0 00.394-.472c.107-.319-.031-.578-.343-.578zm-9.587.528l-.169.031-.281.041-.028.019a4.43 4.43 0 00-.766.156.768.768 0 00-.522.41c-.04.127.007.18.05.215.243.117.522.135.778.05.43-.147.772-.475.938-.897v-.025z" fill="#F6931C"/></svg>
